X: 43018
T: Willy Taylor's
R: polka
M: 2/4
K: Gmajor
|:F/E/|DG GF/G/|Ad- d>e|f/g/f/e/ d/e/d/c/|AF G/A/G/F/|
DG- GF/G/|Ad d>e|f/g/f/e/ c/A/F/A/|GB G:|
K: DMaj
|:c/B/|Af f/e/d/c/|BG g>B|Aa g/f/e/d/|fe eF/G/|
Ad f/e/d/c/|dG B>G|Aa g/f/e|d2 d:|

